!!!!SEGMENT: pl-kk--i-533--007_studzinski-piotr--nr-7-jesu-dulcis-memoria.krn
!!!cenid: 18xx:4476
!!!COM: Studziński, Piotr
!!!COM-rismID: pe50044409
!!!CDT: 1825/10/16-1869/04/20
!!!CNT: Polish
!!!OTL: Nr 7. Jesu dulcis memoria
!!!PDT:
!!!AGN: Sacred
!!!YEC: Copyright 2022 Narodowy Instytut Fryderyka Chopina (https://polishscores.org)
!!!YEM: License CC-BY-4.0 (https://creativecommons.org/licenses/by/4.0)
!!!SMS-siglum: PL-Kk
!!!SMS-shelfmark: I.533
!!!SMS-variant: Soprano: PL-Kk I.533: 4-5 ; Alto: PL-Kk I.533: 10 ; Tenor: PL-Kk I.533: 15-16 ; Basso: PL-Kk I.533: 20-21
!!!SMS-altvar: Partytura: PL-Kk I.533: 28
!!!SMS-shelfwork: 007 W
!!!NIFC-rismSourceID: 1001210519
!!!NIFC-rismChildID: 1001210548
!!!NIFC-islandoraID: pl-kk:16805
!!!URL-pdf-islandora: https://repozytorium.nifc.pl/islandora/object/pl-kk%3A16805/datastream/PDF/view
!!!URL-scan: https://polish.musicsources.pl/pl/lokalizacje/galeria/rekopisy/7160/1 @EN{Scan on Polish Music Sources Website} @PL{Skany w portalu Dziedzictwo Muzyki Polskiej w otwartym dostępie}
!!!IIIF:
!!!ONB-nifc:
!!!AIN: 1 alto 1 bass 1 soprn 1 tenor
!!!key: A-
**kern	**text	**dynam	**kern	**text	**dynam	**kern	**text	**text	**dynam	**kern	**text	**dynam
*part4	*part4	*part4	*part3	*part3	*part3	*part2	*part2	*part2	*part2	*part1	*part1	*part1
*staff4	*staff4	*	*staff3	*staff3	*	*staff2	*staff2	*staff2	*	*staff1	*staff1	*
*ICvox	*	*	*ICvox	*	*	*ICvox	*	*	*	*ICvox	*	*
*Ibass	*	*	*Itenor	*	*	*Ialto	*	*	*	*Isoprn	*	*
*I"Baſso	*	*	*I"Tenor	*	*	*I"Alto	*	*	*	*I"Soprano	*	*
*I'B	*	*	*I'T	*	*	*I'A	*	*	*	*I'S	*	*
*clefF4	*	*	*clefC4	*	*	*clefC3	*	*	*	*clefG2	*	*
*k[b-e-a-d-]	*	*	*k[b-e-a-d-]	*	*	*k[b-e-a-d-]	*	*	*	*k[b-e-a-d-]	*	*
*A-:	*	*	*A-:	*	*	*A-:	*	*	*	*A-:	*	*
*M4/4	*	*	*M4/4	*	*	*M4/4	*	*	*	*M4/4	*	*
*met(c)	*	*	*met(c)	*	*	*met(c)	*	*	*	*met(c)	*	*
*all\right	*	*	*all\right	*	*	*all\right	*	*	*	*all\right	*	*
*2\right	*	*below	*2\right	*	*below	*2\right	*	*	*below	*2\right	*	*below
=1	=1	=1	=1	=1	=1	=1	=1	=1	=1	=1	=1	=1
!LO:TX:a:t=Allegro Maestoso.	!	!LO:DY:rj	!	!	!LO:DY:rj	!	!	!	!LO:DY:rj	!LO:TX:a:t=Allegro Maestoso	!	!LO:DY:rj
2A-\	Je-	p	2A-\	Je-	p	2c\	Je-	.	p	2e-/	Je-	p
2A-\	-su	.	2A-\	-su	.	2c\	-su	.	.	2e-/	-su	.
=2	=2	=2	=2	=2	=2	=2	=2	=2	=2	=2	=2	=2
!	!	!LO:HP:a	!	!	!LO:HP:a	!	!	!	!LO:HP:a	!	!	!
2D-\	dul-	<	2A-\	dul-	<	2d-\	dul-	.	<	2f/	dul-	.
4A-\	-cis	.	4A-\	-cis	.	4c\	-cis	.	.	4e-/	-cis	<
4F\	me-	[[	4c\	me-	[	4f\	me-	.	[	4a-/	me-	[[
=3	=3	=3	=3	=3	=3	=3	=3	=3	=3	=3	=3	=3
2D-\	-mo-	.	2B-\	-mo-	.	2f\	-mo-	.	.	2.a-/	-mo-	.
2E-\	-ri-	.	2B-\	-ri-	.	2d-\	-ri-	.	.	.	.	.
.	.	.	.	.	.	.	.	.	.	4g/	-ri-	.
=4	=4	=4	=4	=4	=4	=4	=4	=4	=4	=4	=4	=4
2AA-/	-a	.	2A-\	-a	.	2c\	-a	.	.	2a-/	-a	.
2r	.	.	2r	.	.	2r	.	.	.	2r	.	.
=5	=5	=5	=5	=5	=5	=5	=5	=5	=5	=5	=5	=5
!LO:TX:a:t=2	!	!	!	!	!	!	!	!	!	!	!	!
0r	.	.	4r	.	.	[1a-	dans	.	.	[1cc	dans	.
.	.	.	4A-\	dans	.	.	.	.	.	.	.	.
.	.	.	4c\	ve-	.	.	.	.	.	.	.	.
.	.	.	4dn\	-ra	.	.	.	.	.	.	.	.
=6	=6	=6	=6	=6	=6	=6	=6	=6	=6	=6	=6	=6
.	.	.	2e-\	cor-	.	4a-\]	.	.	.	4cc\]	.	.
.	.	.	.	.	.	4g\	cor-	.	.	4b-\	cor-	.
.	.	.	2E-/	-dis	.	2g\	-dis	.	.	2b-\	-dis	.
!	!	!	!LO:LB:g=original	!	!	!	!	!	!	!	!	!
=7	=7	=7	=7	=7	=7	=7	=7	=7	=7	=7	=7	=7
2F\	gau-	.	2r	.	.	2a-\	gau-	.	.	(2dd-\	gau-	.
2G\	-di-	.	4B-\	gau-	.	2b-\	-di-	.	.	4ff\)	.	.
.	.	.	4e-\	-di-	.	.	.	.	.	4ee-\	-di-	.
=8	=8	=8	=8	=8	=8	=8	=8	=8	=8	=8	=8	=8
2A-\	-a	.	2e-\	-a	.	2a-\	-a	.	.	2cc\	-a	.
2r	.	.	2r	.	.	2r	.	.	.	2r	.	.
!	!	!	!	!	!	!LO:LB:g=original	!	!	!	!LO:LB:g=original	!	!
=9	=9	=9	=9	=9	=9	=9	=9	=9	=9	=9	=9	=9
2A-\	sed	.	2c\	sed	.	2e-\	sed	.	.	2cc\	sed	.
4A-\	su-	.	4dn\	su-	.	4f\	su-	.	.	4cc\	su-	.
4A-\	-per	.	4d\	-per	.	4f\	-per	.	.	4b-\	-per	.
!LO:LB:g=original	!	!	!	!	!	!	!	!	!	!	!	!
=10	=10	=10	=10	=10	=10	=10	=10	=10	=10	=10	=10	=10
2G\	nel	.	2B-\	nel	.	2e-\	nel	.	.	2b-\	nel	.
2A-\	et	.	2c\	et	.	2f\	et	.	.	2a-\	et	.
=11	=11	=11	=11	=11	=11	=11	=11	=11	=11	=11	=11	=11
2B-\	om-	.	2B-\	om-	.	2e-\	om-	.	.	2g/	om-	.
2BB-/	-ni-	.	2A-\	-ni-	.	2dn\	-ni-	.	.	2f/	-ni-	.
=12	=12	=12	=12	=12	=12	=12	=12	=12	=12	=12	=12	=12
2E-\	-a	.	2G\	-a	.	2B-\	-a	.	.	2e-/	-a	.
2r	.	.	2r	.	.	2r	.	.	.	2r	.	.
=13	=13	=13	=13	=13	=13	=13	=13	=13	=13	=13	=13	=13
!	!	!LO:DY:rj	!	!	!LO:DY:rj	!	!	!	!LO:DY:rj	!	!	!LO:DY:rj
2E-\	e-	f	2B-\	e-	f	2g\	e-	.	f	2ee-\	e-	f
2E-\	-jus	.	2B-\	-jus	.	2g\	-jus	.	.	2ee-\	-jus	.
!	!	!	!LO:LB:g=original	!	!	!	!	!	!	!	!	!
=14	=14	=14	=14	=14	=14	=14	=14	=14	=14	=14	=14	=14
2F\	dul-	.	2B-\	dul-	.	2a-\	dul-	.	.	2ddn\	dul-	.
4F\	-cis	.	4B-\	-cis	.	4a-\	-cis	.	.	4dd\	-cis	.
4A-\	pre-	.	4dn\	pre-	.	4f\	pre-	.	.	4b-\	pre-	.
=15	=15	=15	=15	=15	=15	=15	=15	=15	=15	=15	=15	=15
2.G\	-sen-	.	2.e-\	-sen-	.	2.e-\	-sen-	.	.	2.b-\	-sen-	.
4G\	-ti-	.	4d-X\	-ti-	.	4e-\	-ti-	.	.	4bn\	-ti-	.
!	!	!	!	!	!	!LO:LB:g=original	!	!	!	!	!	!
=16	=16	=16	=16	=16	=16	=16	=16	=16	=16	=16	=16	=16
2A-\	-a	.	2c\	-a	.	2e-\	-a	.	.	2cc\	-a	.
4r	.	.	4r	.	.	4r	.	.	.	4r	.	.
4A-\	nil	.	4c\	nil	.	4a-\	nel	.	.	4cc\	nil	.
!	!	!	!	!	!	!	!	!	!	!LO:LB:g=original	!	!
=17	=17	=17	=17	=17	=17	=17	=17	=17	=17	=17	=17	=17
2B-\	ca-	.	2B-\	ca-	.	(4g\	ca-	.	.	(4b-/	ca-	.
.	.	.	.	.	.	4e-\)	.	.	.	4g/)	.	.
4BB-/	-ni-	.	4B-\	-ni-	.	4f\	-ni-	.	.	4a-/	-ni-	.
4BB-/	-tur	.	4B-\	-tur	.	4e-\	-tur	.	.	4g/	-tur	.
!LO:LB:g=original	!	!	!	!	!	!	!	!	!	!	!	!
=18	=18	=18	=18	=18	=18	=18	=18	=18	=18	=18	=18	=18
2BB-/	sua-	.	(4B-\	sua-	.	4e-\	sua-	.	.	(4g/	sua-	.
.	.	.	4G\)	.	.	2B-/	-vi-	.	.	4e-/)	.	.
4BB-/	-vi-	.	4A-\	-vi-	.	.	.	.	.	4f/	-vi-	.
4BB-/	-us	.	4G\	-us	.	4B-/	-us	.	.	4e-/	-us	.
=19	=19	=19	=19	=19	=19	=19	=19	=19	=19	=19	=19	=19
4BB-/	au-	.	4G-X/	au-	.	4An/	au-	.	.	4e-/	au-	.
8BB-/	-di-	.	8G-/	-di-	.	8A/	-di-	.	.	8e-/	-di-	.
8BB-/	-tur	.	8G-/	-tur	.	8A/	-tur	.	.	8e-/	-tor	.
4BB-/	nil	.	4F/	nil	.	4A/	nil	.	.	4dn/	nil	.
4BB-/	ju-	.	4F/	ju-	.	4A/	ju-	.	.	4d/	ju-	.
!	!	!	!LO:LB:g=original	!	!	!	!	!	!	!	!	!
=20	=20	=20	=20	=20	=20	=20	=20	=20	=20	=20	=20	=20
4.E-\	-cun-	.	4.A-\	-cun-	.	4.dn\	-cun-	.	.	4.f/	-cun-	.
8E-\	-di-	.	8G\	-di-	.	8B-\	-di-	.	.	8e-/	-di-	.
4E-\	-us	.	4G\	-us	.	4B-\	-us	.	.	4e-/	-us	.
4r	.	.	4r	.	.	4r	.	.	.	4r	.	.
=21	=21	=21	=21	=21	=21	=21	=21	=21	=21	=21	=21	=21
!	!	!LO:DY:rj	!LO:TX:a:t=dol	!	!LO:DY:rj	!LO:TX:a:t=dol	!	!	!LO:DY:rj	!LO:TX:a:t=dol	!	!LO:DY:rj
4E-\	nil-	p	4B-\	nil	p	4e-\	nil	.	p	4g/	nil	p
8E-\	-co-	.	8B-\	co-	.	8e-\	co-	.	.	8f#X/	co-	.
8E-\	-gi-	.	8B-\	-gi-	.	8e-\	-gi-	.	.	8g/	-gi-	.
4E-\	-ta-	.	4G/	-ta-	.	4e-\	-ta-	.	.	4cc/	-ta-	.
4E-\	-tur	.	4G/	-tur	.	4e-\	-tur	.	.	4b-/	-tur	.
!	!	!	!	!	!	!LO:LB:g=original	!	!	!	!	!	!
=22	=22	=22	=22	=22	=22	=22	=22	=22	=22	=22	=22	=22
4.F\	dul-	.	4.A-/	dul-	.	4.dn\	dul-	.	.	[4b-/	dul-	.
.	.	.	.	.	.	.	.	.	.	16b-/LL]	.	.
.	.	.	.	.	.	.	.	.	.	16a-/JJ	.	.
8F\	-ci-	.	8A-/	-ci-	.	8B-\	-ci-	.	.	16f/LL	-ci-	.
.	.	.	.	.	.	.	.	.	.	16dn/JJ	.	.
4F\	-us	.	4A-/	-us	.	4B-\	-us	.	.	4B-/	-us	.
4r	.	.	4r	.	.	4r	.	.	.	4r	.	.
!	!	!	!	!	!	!	!	!	!	!LO:LB:g=original	!	!
=23	=23	=23	=23	=23	=23	=23	=23	=23	=23	=23	=23	=23
4Dn\	qvam	.	4B-\	qvam	.	4f\	qvam	.	.	4a-/	qvam	.
8D\	Je-	.	8B-\	Je-	.	8en\	Je-	.	.	8g/	Je-	.
8D\	-su	.	8B-\	-sus	.	8f\	-sus	.	.	8a-/	-sus	.
!LO:LB:g=original	!	!	!	!	!	!	!	!	!	!	!	!
4F\	De-	.	4B-\	De-	.	4a-\	De-	.	.	4ddn\	De-	.
4A-\	-i	.	4dn\	-i	.	4f\	-i	.	.	4cc\	-i	.
=24	=24	=24	=24	=24	=24	=24	=24	=24	=24	=24	=24	=24
4.G\	Fi-	.	4.B-\	Fi-	.	4.e-\	Fi-	.	.	[4cc/	Fi-	.
.	.	.	.	.	.	.	.	.	.	16cc/LL]	.	.
.	.	.	.	.	.	.	.	.	.	16b-/JJ	.	.
8GG/	-li-	.	8E-/	-li-	.	8B-\	-li-	.	.	16g/LL	-li-	.
.	.	.	.	.	.	.	.	.	.	16e-/JJ	.	.
4GG/	-us	.	4E-/	-us	.	4B-\	-us	.	.	4B-/	-us	.
4r	.	.	4r	.	.	4r	.	.	.	4r	.	.
!	!	!	!LO:LB:g=original	!	!	!	!	!	!	!	!	!
=25	=25	=25	=25	=25	=25	=25	=25	=25	=25	=25	=25	=25
!	!	!	!	!	!	!	!	!	!	!	!	!LO:HP:a:t=cres
4G\	Je-	.	4B-\	Je-	.	4e-\	Je-	.	.	4b-\	Je-	<
!	!	!LO:HP:t=cres	!	!	!LO:HP:b:t=cres	!	!	!	!LO:HP:t=cres	!	!	!
.	.	<	.	.	<	.	.	.	<	.	.	.
8G\	-su	.	8B-\	-su	.	8e-\	-su	.	.	8an\	-su	.
8G\	spes	.	8B-\	spes	.	8e-\	spes	.	.	8b-\	spes	.
4G\	poe-	.	4B-\	poe-	.	4e-\	poe-	.	.	4ee-\	poe-	.
4G\	-ni-	.	4Bn\	-ni-	.	4f\	-ni-	.	.	4ddn\	-ni-	.
=26	=26	=26	=26	=26	=26	=26	=26	=26	=26	=26	=26	=26
!	!	!LO:DY:rj	!	!	!LO:DY:rj	!	!	!	!LO:DY:rj	!	!	!LO:DY:rj
4.A-\	-ten-	f	4.c\	-ten-	f	4.e-\	-ten-	.	f	8ddn\L	-ten-	f
.	.	.	.	.	.	.	.	.	.	8cc\J	.	.
.	.	.	.	.	.	.	.	.	.	4.ff\	.	.
8A-\	-ti-	.	8c\	-ti-	.	8e-\	-ti-	.	.	.	.	.
2F\	-bus	.	2An\	-bus	.	2e-\	-bus	.	.	.	.	.
.	.	.	.	.	.	.	.	.	.	8ee-\	.	.
.	.	.	.	.	.	.	.	.	.	8dd\	-ti-	.
.	.	.	.	.	.	.	.	.	.	8cc\	-bus	.
!	!	!	!	!	!	!LO:LB:g=original	!	!	!	!	!	!
=27	=27	=27	=27	=27	=27	=27	=27	=27	=27	=27	=27	=27
4BB-/	qvam	.	4B-\	qvam	.	4g\	qvam	.	.	4b-\	qvam	.
8BB-/	pi-	.	8B-\	pi-	.	8f\	pi-	.	.	8a-\	pi-	.
8BB-/	-us	.	8B-\	-us	.	8e-\	-us	.	.	8g\	-us	.
4BB-/	es	.	4B-\	es	.	4f\	es	.	.	4a-\	es	.
4BB-/	pe-	.	4B-\	pe-	.	4dn\	pe-	.	.	4f\	pe-	.
!	!	!	!	!	!	!	!	!	!	!LO:LB:g=original	!	!
=28	=28	=28	=28	=28	=28	=28	=28	=28	=28	=28	=28	=28
4E-\	-ten-	.	(4.B-\	-ten-	.	(8e-\L	-ten-	.	.	(8g/L	-ten-	.
*	*	*	*	*	*	*Xtuplet	*	*	*	*Xbrackettup	*	*
!	!	!	!	!	!	!	!	!	!	!LO:TUP:b	!	!
.	.	.	.	.	.	24f\L	.	.	.	24a-/	.	.
.	.	.	.	.	.	24e-\	.	.	.	24g/L	.	.
.	.	.	.	.	.	24dn\JJ	.	.	.	24f/JJ	.	.
4E-\	-ti-	.	.	.	.	8e-\L)	.	.	.	8g/L	.	.
.	.	.	8e-\)	.	.	8f\J	-ti-	.	.	8a-/J)	-ti-	.
4E-\	-bus	.	(8B-\L	-ti-	.	4g\	-bus	.	.	4b-/	-bus	.
.	.	.	8c\J)	.	.	.	.	.	.	.	.	.
4r	.	.	(8B-\L	-bus	.	4r	.	.	.	4r	.	.
.	.	.	8G\J)	.	.	.	.	.	.	.	.	.
!LO:LB:g=original	!	!	!LO:PB:g=original	!	!	!	!	!	!	!	!	!
=29	=29	=29	=29	=29	=29	=29	=29	=29	=29	=29	=29	=29
!	!	!LO:DY:rj	!	!	!	!	!	!	!LO:DY:rj	!	!	!LO:DY:rj
4E-\	qvam	p	4B-\	qvam	.	4e-\	[[nil	qvam	p	4g/	qvam	p
8E-\	bo-	.	8B-\	bo-	.	8e-\	co-	bo-	.	8f#X/	bo-	.
8E-\	-nus	.	8B-\	-nus	.	8e-\	-gi-	-nus	.	8g/	-nus	.
4E-\	te	.	4G\	te	.	4e-\	-ta-	te	.	4cc\	te	.
4E-\	qvae-	.	4G\	qvae-	.	4e-\	-tur	qve-	.	4b-\	qvae-	.
=30	=30	=30	=30	=30	=30	=30	=30	=30	=30	=30	=30	=30
4.F\	-ren-	.	4.A-\	-ren-	.	4.dn\	dul-	-ren-	.	([4b-/	-ren-	.
.	.	.	.	.	.	.	.	.	.	16b-/LL]	.	.
.	.	.	.	.	.	.	.	.	.	16a-/JJ)	.	.
8F\	-ti-	.	8A-\	-ti-	.	8B-\	-ci-	-ti-	.	16f/LL	-ti-	.
.	.	.	.	.	.	.	.	.	.	16dn/JJ	.	.
!	!	!	!LO:N:vis=8	!	!	!	!	!	!	!	!	!
4F\	-bus	.	4A-\	-bus	.	4B-\	-us]]	-bus	.	4B-/	-bus	.
4r	.	.	4r	.	.	4r	.	.	.	4r	.	.
!	!	!	!	!	!	!LO:PB:g=original	!	!	!	!	!	!
=31	=31	=31	=31	=31	=31	=31	=31	=31	=31	=31	=31	=31
4Dn\	sed	.	4B-\	sed	.	4f\	sed	.	.	4a-/	sed	.
8D\	qvid	.	8B-\	qvid	.	8en\	qvid	.	.	8g/	qvid	.
8D\	in-	.	8B-\	in-	.	8f\	in-	.	.	8a-/	in-	.
4F\	-ve-	.	4B-\	-ve-	.	4a-\	-ve-	.	.	4ddn\	-ve-	.
4A-\	-ni-	.	4dn\	-ni-	.	4f\	-ni-	.	.	4cc\	-ni-	.
=32	=32	=32	=32	=32	=32	=32	=32	=32	=32	=32	=32	=32
4.G\	-en-	.	4.B-\	-en-	.	4.e-\	-en-	.	.	(4cc/	-en-	.
.	.	.	.	.	.	.	.	.	.	16cc/LL	.	.
.	.	.	.	.	.	.	.	.	.	16b-/JJ)	.	.
8GG/	-ti-	.	8E-/	-ti-	.	8B-\	-ti-	.	.	16g/LL	-ti-	.
.	.	.	.	.	.	.	.	.	.	16e-/JJ	.	.
4GG/	-bus	.	4E-/	-bus	.	4B-\	-bus	.	.	4B-/	-bus	.
4r	.	.	4r	.	.	4r	.	.	.	4r	.	.
!	!	!	!	!	!	!	!	!	!	!LO:LB:g=original	!	!
=33	=33	=33	=33	=33	=33	=33	=33	=33	=33	=33	=33	=33
!	!	!	!	!	!	!	!	!	!	!	!	!LO:HP:t=cres
4G\	Je-	.	4B-\	Je-	.	4e-\	Je-	.	.	4b-\	Je-	<
!	!	!LO:HP:b:t=Cres	!	!	!LO:HP:a:t=cres	!	!	!	!LO:HP:a:t=cres	!	!	!
.	.	<	.	.	<	.	.	.	<	.	.	.
8G\	-su	.	8B-\	-su	.	8e-\	-su	.	.	8an\	-su	.
8G\	dul-	.	8B-\	dul-	.	8e-\	dul-	.	.	8b-\	dul-	.
4G\	-ce-	.	4B-\	-ce-	.	4e-\	-ce-	.	.	4ee-\	-ce-	.
4G\	-do	.	4Bn\	-do	.	4f\	-do	.	.	4ddn\	-do	.
!LO:LB:g=original	!	!	!LO:LB:g=original	!	!	!	!	!	!	!	!	!
=34	=34	=34	=34	=34	=34	=34	=34	=34	=34	=34	=34	=34
*	*	*	*	*	*	*	*	*	*above	*	*	*
!	!	!LO:DY:rj	!	!	!LO:DY:rj	!	!	!	!LO:DY:rj	!	!	!LO:DY:rj
4.A-\	cor-	f	4.c\	cor-	f	4.e-\	cor-	.	f	(8ddn\L	cor-	f
.	.	.	.	.	.	.	.	.	.	8cc\J)	.	.
.	.	.	.	.	.	.	.	.	.	4.ff\	.	.
8A-\	-di-	.	8c\	-di-	.	8e-\	-di-	.	.	.	.	.
2F\	-um	.	2A-\	-um	.	2e-\	-um	.	.	.	.	.
.	.	.	.	.	.	.	.	.	.	8ee-\	.	.
.	.	.	.	.	.	.	.	.	.	8dd\	-di-	.
.	.	.	.	.	.	.	.	.	.	8cc\	-um	.
=35	=35	=35	=35	=35	=35	=35	=35	=35	=35	=35	=35	=35
4BB-/	fons	.	4B-\	fons	.	4g\	fons	.	.	4b-/	fon	.
8BB-/	vi-	.	8B-\	vi-	.	8f\	vi-	.	.	8a-/	vi-	.
8BB-/	-vus,	.	8B-\	-vus,	.	8e-\	-vus	.	.	8g/	-vus,	.
4BB-/	lu-	.	4B-\	lu-	.	4f\	lu-	.	.	4a-/	lu-	.
4BB-/	-men	.	4A-\	-men	.	4dn\	-men	.	.	4f/	-men	.
!	!	!	!	!	!	!LO:LB:g=original	!	!	!	!	!	!
=36	=36	=36	=36	=36	=36	=36	=36	=36	=36	=36	=36	=36
4.E-\	men-	.	4.A-\	men-	.	4.dn\	men-	.	.	4.f/	men-	.
8E-\	-ti-	.	8G/	-ti-	.	8B-\	-ti-	.	.	8e-/	-ti-	.
4E-\	-um	.	4G/	-um	.	4B-\	-um	.	.	4e-/	-um	.
4E-\	ex-	.	4r	.	.	4r	.	.	.	4r	.	.
=37	=37	=37	=37	=37	=37	=37	=37	=37	=37	=37	=37	=37
!	!	!LO:DY:rj	!	!	!LO:DY:rj	!	!	!	!LO:DY:rj	!	!	!LO:DY:rj
2A-\	-ce-	p	2A-\	ex-	p	2c\	ex-	.	p	2e-/	ex-	p
2A-\	-dens	.	4A-\	-ce-	.	4c\	-ce-	.	.	4e-/	-ce-	.
.	.	.	4A-\	-dens	.	4c\	-dens	.	.	4e-/	-dens	.
!	!	!	!	!	!	!	!	!	!	!LO:LB:g=original	!	!
=38	=38	=38	=38	=38	=38	=38	=38	=38	=38	=38	=38	=38
2D-X\	o-	.	2A-\	o-	.	2d-\	om-	.	.	2f/	om-	.
2F\	-mne	.	2c\	-mne	.	2f\	-ne	.	.	2a-/	-ne	.
=39	=39	=39	=39	=39	=39	=39	=39	=39	=39	=39	=39	=39
2D-\	gau-	.	2B-\	gau-	.	2f\	gau-	.	.	2.a-/	gau-	.
2E-\	-di-	.	2B-\	-di-	.	2d-\	-di-	.	.	.	.	.
.	.	.	.	.	.	.	.	.	.	4g/	-di-	.
!	!	!	!LO:LB:g=original	!	!	!	!	!	!	!	!	!
=40	=40	=40	=40	=40	=40	=40	=40	=40	=40	=40	=40	=40
2AA-/	-um	.	2A-\	-um	.	2c\	-um	.	.	2a-/	-um	.
2r	.	.	2r	.	.	2r	.	.	.	2r	.	.
!LO:LB:g=original	!	!	!	!	!	!	!	!	!	!	!	!
=41	=41	=41	=41	=41	=41	=41	=41	=41	=41	=41	=41	=41
!LO:TX:a:t=1	!	!	!	!	!	!	!	!	!	!	!	!
1r	.	.	4r	.	.	2a-\	et	.	.	2cc\	et	.
.	.	.	4A-\	et	.	.	.	.	.	.	.	.
.	.	.	4c\	o-	.	4a-\	om-	.	.	4cc\	om-	.
.	.	.	4dn\	-mne	.	4a-\	-ne	.	.	4cc\	-ne	.
=42	=42	=42	=42	=42	=42	=42	=42	=42	=42	=42	=42	=42
2r	.	.	2e-\	de-	.	(4a-\	de-	.	.	(4cc\	de-	.
.	.	.	.	.	.	4g\)	.	.	.	4b-\)	.	.
4E-\	de-	.	2E-/	-si-	.	2g\	-si-	.	.	2b-\	-si-	.
4E-\	-si-	.	.	.	.	.	.	.	.	.	.	.
!	!	!	!	!	!	!LO:LB:g=original	!	!	!	!	!	!
=43	=43	=43	=43	=43	=43	=43	=43	=43	=43	=43	=43	=43
2F\	-de-	.	(2F/	-de-	.	2a-\	-de-	.	.	2dd-\	-de-	.
2G\	-ri-	.	4B-\)	.	.	2b-\	-ri-	.	.	4ff\	.	.
.	.	.	4e-\	-ri-	.	.	.	.	.	4ee-\	-ri-	.
=44	=44	=44	=44	=44	=44	=44	=44	=44	=44	=44	=44	=44
4A-\	-um	.	2e-\	-um	.	2a-\	-um	.	.	2cc\	-um	.
4A-\	non	.	.	.	.	.	.	.	.	.	.	.
!LO:N:xstem	!	!	!	!	!	!	!	!	!	!	!	!
4c\	po-	.	2r	.	.	2r	.	.	.	2r	.	.
4A-\	-tens	.	.	.	.	.	.	.	.	.	.	.
=45	=45	=45	=45	=45	=45	=45	=45	=45	=45	=45	=45	=45
2D-X\	po-	.	2A-\	non	.	2f\	non	.	.	2dd-\	non	.
2E-\	-tens	.	4G\	po-	.	4d-\	po-	.	.	4cc\	po-	.
.	.	.	4G\	-tens	.	4d-\	-tens	.	.	4b-\	-tens	.
!	!	!	!	!	!	!	!	!	!	!LO:LB:g=original	!	!
=46	=46	=46	=46	=46	=46	=46	=46	=46	=46	=46	=46	=46
4.AA-/	di-	.	4.E-/	di-	.	4.c\	di-	.	.	4.cc\	di-	.
8AA-/	-ce-	.	8E-/	-ce-	.	8c\	-ce	.	.	8b-\	-ce-	.
4AA-/	-re	.	4E-/	-re	.	4c\	ne	.	.	4a-\	-re	.
8A-\L	nec	.	4e-\	nec	.	4a-\	nec	.	.	4cc\	nec	.
8G-X\J	.	.	.	.	.	.	.	.	.	.	.	.
!	!	!	!LO:LB:g=original	!	!	!	!	!	!	!	!	!
=47	=47	=47	=47	=47	=47	=47	=47	=47	=47	=47	=47	=47
.	.	.	.	.	.	.	.	.	.	8qqee-/	.	.
4F\	li-	.	4d-\	li-	.	4a-\	li-	.	.	4dd-\	li-	.
4G-X\	-te-	.	4e-\	-te-	.	4a-\	-te-	.	.	4cc\	-te-	.
4F\	-ra	.	4d-\	-ra	.	4a-\	-ra	.	.	4dd-\	-ra	.
4D-\	ex-	.	4d-\	ex-	.	4a-\	ex-	.	.	4ff\	ex-	.
!LO:LB:g=original	!	!	!	!	!	!	!	!	!	!	!	!
=48	=48	=48	=48	=48	=48	=48	=48	=48	=48	=48	=48	=48
4.A-\	-pri-	.	4.d-\	-pri-	.	4.a-\	-pri-	.	.	4.ff\	-pri-	.
8A-\	-me-	.	8c\	-me-	.	8a-\	-me	.	.	8ee-\	-me-	.
4A-\	-re	.	4c\	-re	.	4a-\	ne	.	.	4ee-\	-re	.
!	!	!LO:DY:rj	!	!	!	!	!	!	!	!	!	!
4c\	ex-	f	4e-\	ex-	.	4a-\	ex-	.	.	4ee-\	ex-	.
!	!	!	!	!	!	!LO:LB:g=original	!	!	!	!	!	!
=49	=49	=49	=49	=49	=49	=49	=49	=49	=49	=49	=49	=49
!	!	!	!	!	!	!	!	!	!	!	!	!LO:DY:rj
2c\	-por-	.	2e-\	-por-	.	2a-\	-por-	.	.	2ee-\	-por-	f
2C\	-tus	.	2A-\	-tus	.	2e-\	-tens	.	.	2a-\	-tus	.
=50	=50	=50	=50	=50	=50	=50	=50	=50	=50	=50	=50	=50
2D-\	po-	.	(4A-\	po-	.	2d-\	po-	.	.	(4f/	po-	.
.	.	.	4An\)	.	.	.	.	.	.	4ff\)	.	.
2D-\	-test	.	(4B-\	-test	.	4f\	-test	.	.	(4dd-\	-test	.
.	.	.	4d-\)	.	.	4f\	.	.	.	4b-\)	.	.
=51	=51	=51	=51	=51	=51	=51	=51	=51	=51	=51	=51	=51
2E-\	cre-	.	2c\	cre-	.	2e-\	cre-	.	.	2a-/	cre-	.
2E-\	-de-	.	2d-\	-de-	.	2g\	-de-	.	.	4b-/	.	.
.	.	.	.	.	.	.	.	.	.	4e-/	-de-	.
!	!	!	!	!	!	!	!	!	!	!LO:LB:g=original	!	!
=52	=52	=52	=52	=52	=52	=52	=52	=52	=52	=52	=52	=52
2A-\	-re	.	2c\	-re	.	2e-\	-re	.	.	2cc\	-re	.
4r	.	.	4r	.	.	4r	.	.	.	4r	.	.
!	!	!	!	!	!LO:DY:rj	!	!	!	!	!	!	!
4c\	ex-	.	4e-\	ex-	f	4a-\	ex-	.	.	4ee-\	ex-	.
=53	=53	=53	=53	=53	=53	=53	=53	=53	=53	=53	=53	=53
*	*	*	*	*	*	*	*	*	*below	*	*	*
!	!	!	!	!	!	!	!	!	!LO:DY:rj	!	!	!LO:DY:rj
2c\	-por-	.	2e-\	-por-	.	2a-\	-por-	.	f	2ee-\	-por-	f
2C\	-tus	.	2A-\	-tus	.	2e-\	-tus	.	.	2g-X/	-tus	.
!	!	!	!LO:LB:g=original	!	!	!	!	!	!	!	!	!
=54	=54	=54	=54	=54	=54	=54	=54	=54	=54	=54	=54	=54
2D-\	po-	.	(4A-\	po-	.	2d-\	po-	.	.	(4f/	po-	.
.	.	.	4An\)	.	.	.	.	.	.	4ff\)	.	.
2D-\	-test	.	(4B-\	-test	.	2f\	-test	.	.	(8ee-\L	.	.
.	.	.	.	.	.	.	.	.	.	8dd-\J	.	.
.	.	.	4d-\)	.	.	.	.	.	.	8cc\L	-test	.
.	.	.	.	.	.	.	.	.	.	8b-\J)	.	.
=55	=55	=55	=55	=55	=55	=55	=55	=55	=55	=55	=55	=55
2E-\	cre-	.	2c\	cre-	.	2e-\	cre-	.	.	(4a-/	cre-	.
.	.	.	.	.	.	.	.	.	.	16b-/LL	.	.
.	.	.	.	.	.	.	.	.	.	16a-/	.	.
.	.	.	.	.	.	.	.	.	.	16g/	.	.
.	.	.	.	.	.	.	.	.	.	16a-/JJ)	.	.
2E-\	-de-	.	2d-\	-de-	.	2g\	-de-	.	.	4.cc/	.	.
.	.	.	.	.	.	.	.	.	.	8b-/	-de-	.
!LO:PB:g=original	!	!	!	!	!	!LO:LB:g=original	!	!	!	!	!	!
=56	=56	=56	=56	=56	=56	=56	=56	=56	=56	=56	=56	=56
!	!	!LO:DY:rj	!	!	!	!	!	!	!	!	!	!
4A-\	-re	p	4c\	-re	.	4e-\	-re	.	.	4a-/	-re	.
(4AA-/	qvid	.	4r	.	.	4r	.	.	.	4r	.	.
4C/	.	.	4r	.	.	2r	.	.	.	2r	.	.
!	!	!	!	!	!LO:DY:rj	!	!	!	!	!	!	!
4E-\)	.	.	4E-/	qvid	p	.	.	.	.	.	.	.
!	!	!	!	!	!	!	!	!	!	!LO:PB:g=original	!	!
=57	=57	=57	=57	=57	=57	=57	=57	=57	=57	=57	=57	=57
!	!	!	!	!	!	!LO:TX:a:t=1	!	!	!	!	!	!
4A-\	sit	.	4A-/	sit	.	1r	.	.	.	4r	.	.
4r	.	.	4r	.	.	.	.	.	.	(4c/	qvid	.
2r	.	.	2r	.	.	.	.	.	.	4e-/)	.	.
.	.	.	.	.	.	.	.	.	.	4a-/	sit	.
=58	=58	=58	=58	=58	=58	=58	=58	=58	=58	=58	=58	=58
*	*	*above	*	*	*	*	*	*	*	*	*	*
!	!	!LO:DY:rj	!	!	!LO:DY:rj	!	!	!	!LO:DY:rj	!	!	!LO:DY:rj
1C	Je-	f	1G	Je-	f	1en	Je-	.	f	1cc	Je-	f
=59	=59	=59	=59	=59	=59	=59	=59	=59	=59	=59	=59	=59
2F\	-sum	.	2c\	-sum	.	2f\	-sum	.	.	2a-/	-sum	.
2D-\	di-	.	2A-\	di-	.	2f\	di-	.	.	2dd-\	di-	.
=60	=60	=60	=60	=60	=60	=60	=60	=60	=60	=60	=60	=60
2.E-\	-li-	.	2.G/	-li-	.	2.d-\	-li-	.	.	2.b-\	-li-	.
4E-\	-ge-	.	4G/	-ge-	.	4d-\	-ge-	.	.	4cc\	-ge-	.
=61	=61	=61	=61	=61	=61	=61	=61	=61	=61	=61	=61	=61
!	!	!LO:DY:rj	!	!	!	!	!	!	!	!	!	!
4A-\	-re	p	4A-/	-re	.	4c\	-re	.	.	4a-/	-ra	.
(4AA-/	a-	.	4r	.	.	4r	.	.	.	4r	.	.
4C/	.	.	2r	.	.	2r	.	.	.	2r	.	.
4E-\)	.	.	.	.	.	.	.	.	.	.	.	.
!	!	!	!LO:LB:g=original	!	!	!	!	!	!	!	!	!
=62	=62	=62	=62	=62	=62	=62	=62	=62	=62	=62	=62	=62
!	!	!	!	!	!LO:DY:rj	!	!	!	!LO:DY:rj	!	!	!
4A-\	-men	.	4r	.	p	2.c\	a-	.	p	((4e-/	a-	.
4G\	a-	.	(4B-\	a-	.	.	.	.	.	4en/	.	.
4F\	.	.	4A-\	.	.	.	.	.	.	4f/	.	.
4En\	-men	.	4B-\	.	.	4c\	-men	.	.	4g/)	.	.
!LO:LB:g=original	!	!	!	!	!	!	!	!	!	!	!	!
=63	=63	=63	=63	=63	=63	=63	=63	=63	=63	=63	=63	=63
*	*	*	*	*	*^	*	*	*	*	*	*	*
!	!	!	!	!	!	!LO:HP:b:t=cres	!	!	!	!	!	!	!
2E-X\	a-	.	2c\)	.	<	<	2.f\	a-	.	.	2an/	.	.
4D-\	.	.	4B-\	.	.	.	.	.	.	.	4b-\)	.	.
4BB-\	-men	.	4B-\	-men	[	.	4f\	-men	.	.	4dd-\	-men	.
!	!	!	!	!	!	!	!	!	!	!	!LO:LB:g=original	!	!
*	*	*	*	*	*v	*v	*	*	*	*	*	*	*
=64	=64	=64	=64	=64	=64	=64	=64	=64	=64	=64	=64	=64
*	*	*below	*	*	*	*	*	*	*	*	*	*
!	!	!LO:DY:rj	!	!	!LO:DY:rj	!	!	!	!LO:DY:rj	!	!	!LO:DY:rj
1E-	a-	f	(2A-\	a-	f	(2e-\	a-	.	f	4cc\	a-	f
.	.	.	.	.	.	.	.	.	.	4a-\	.	.
.	.	.	4G\	.	.	2d-\)	.	.	.	4b-\	.	.
.	.	.	4B-\)	.	.	.	.	.	.	4g\	.	.
!	!	!	!	!	!	!LO:LB:g=original	!	!	!	!	!	!
=65	=65	=65	=65	=65	=65	=65	=65	=65	=65	=65	=65	=65
4AA-/	-men	.	4A-/	-men	.	4c\	-men	.	.	4a-\	-men	.
4r	.	.	(<4E-/	a-	.	4r	.	.	.	4r	.	.
2r	.	.	4A-/	.	.	2r	.	.	.	2r	.	.
.	.	.	4c\)	.	.	.	.	.	.	.	.	.
=66	=66	=66	=66	=66	=66	=66	=66	=66	=66	=66	=66	=66
!	!	!LO:DY:rj	!	!	!	!	!	!	!LO:DY:rj	!	!	!LO:DY:rj
1E-	a-	f	1e-	.	.	1g	a-	.	f	1b-	a-	f
=67	=67	=67	=67	=67	=67	=67	=67	=67	=67	=67	=67	=67
4A-\	-men	.	4e-\	-men	.	4a-\	-men	.	.	4cc\	-men	.
4e-\	a-	.	4r	.	.	4r	.	.	.	4r	.	.
4c\	.	.	2r	.	.	2r	.	.	.	2r	.	.
4A-\	-men	.	.	.	.	.	.	.	.	.	.	.
=68	=68	=68	=68	=68	=68	=68	=68	=68	=68	=68	=68	=68
1E-	a-	.	1B-	a-	.	1d-	a-	.	.	1g	a-	.
=69	=69	=69	=69	=69	=69	=69	=69	=69	=69	=69	=69	=69
4A-\	-men	.	4A-\	-men	.	4c\	-men	.	.	4a-/	-men	.
4r	.	.	4r	.	.	4r	.	.	.	4r	.	.
*	*	*	*	*	*above	*	*	*	*	*	*	*
!	!	!LO:DY:rj	!	!	!LO:DY:rj	!	!	!	!LO:DY:rj	!	!	!LO:DY:rj
4A-\	a-	p	4c\	a-	p	4e-\	a-	.	p	4a-/	a-	p
4A-\	-men	.	4c\	-men	.	4e-\	-men	.	.	4a-/	-men	.
!	!	!	!LO:LB:g=original	!	!	!	!	!	!	!	!	!
=70	=70	=70	=70	=70	=70	=70	=70	=70	=70	=70	=70	=70
1A-	a-	.	(4c\	a-	.	(4e-\	a-	.	.	1a-	a-	.
.	.	.	4d-\	.	.	4f\	.	.	.	.	.	.
.	.	.	4c\	.	.	4e-\)	.	.	.	.	.	.
.	.	.	4Bn\)	.	.	4dn\	.	.	.	.	.	.
!LO:LB:g=original	!	!	!	!	!	!	!	!	!	!	!	!
=71	=71	=71	=71	=71	=71	=71	=71	=71	=71	=71	=71	=71
!	!	!LO:HP:a	!	!	!LO:HP:a	!	!	!	!	!	!	!
(4A-\	-a-	<	1c	.	<	1e-	.	.	.	1a-	.	.
4E-\	.	.	.	.	.	.	.	.	.	.	.	.
!	!	!LO:HP:a	!	!	!LO:HP:a	!	!	!	!	!	!	!
4C\	.	[>	.	.	[>	.	.	.	.	.	.	.
4E-\)	.	]]	.	.	]]	.	.	.	.	.	.	.
=72	=72	=72	=72	=72	=72	=72	=72	=72	=72	=72	=72	=72
1AA-;	-men	.	1c;	-men	.	1e-;	-men	.	.	1a-;	-men	.
==	==	==	==	==	==	==	==	==	==	==	==	==
*-	*-	*-	*-	*-	*-	*-	*-	*-	*-	*-	*-	*-
!!!system-decoration: [(s1,s2,s3,s4)]
!!!RDF**kern: > = above
!!!RDF**kern: < = below
!!!RDF**kern: i = editorial accidental
!!!ENC: Andrzej Gręziak
!!!EED: Katarzyna Serwa
!!!END: 2023-10-26
!!!EEV: 2024-05-27
